packages/webapp/public/images/template-logos/instagram.svg

<svg width="62" height="62" viewBox="0 0 62 62" fill="none" xmlns="http://www.w3.org/2000/svg">
<g clip-path="url(#clip0_496_1131)">
<path d="M31.0107 9.33301C21.9636 9.33301 19.3177 9.34234 18.8034 9.38501C16.9467 9.53933 15.7914 9.83166 14.5328 10.4583C13.5628 10.94 12.7979 11.4983 12.0429 12.2809C10.6679 13.7082 9.83463 15.4642 9.53297 17.5514C9.38631 18.5647 9.34364 18.7714 9.33498 23.9472C9.33164 25.6725 9.33498 27.9431 9.33498 30.9887C9.33498 40.0284 9.34498 42.6717 9.38831 43.185C9.5383 44.9916 9.82163 46.1282 10.4216 47.3715C11.5682 49.7515 13.7582 51.5381 16.3381 52.2047C17.2314 52.4347 18.218 52.5614 19.4847 52.6214C20.0213 52.6447 25.4912 52.6614 30.9643 52.6614C36.4375 52.6614 41.9107 52.6547 42.434 52.628C43.9006 52.559 44.7522 52.4447 45.6939 52.2014C48.2905 51.5314 50.4404 49.7715 51.6104 47.3582C52.1987 46.1449 52.497 44.9649 52.632 43.2526C52.6613 42.8793 52.6737 36.9272 52.6737 30.983C52.6737 25.0379 52.6603 19.0967 52.631 18.7234C52.4943 16.9834 52.196 15.8135 51.5887 14.5768C51.0904 13.5645 50.5371 12.8086 49.7338 12.0356C48.3001 10.6663 46.5469 9.83299 44.4576 9.53167C43.4453 9.38534 43.2436 9.34201 38.0638 9.33301H31.0107Z" fill="url(#paint0_radial_496_1131)"/>
<path d="M31.0107 9.33301C21.9636 9.33301 19.3177 9.34234 18.8034 9.38501C16.9467 9.53933 15.7914 9.83166 14.5328 10.4583C13.5628 10.94 12.7979 11.4983 12.0429 12.2809C10.6679 13.7082 9.83463 15.4642 9.53297 17.5514C9.38631 18.5647 9.34364 18.7714 9.33498 23.9472C9.33164 25.6725 9.33498 27.9431 9.33498 30.9887C9.33498 40.0284 9.34498 42.6717 9.38831 43.185C9.5383 44.9916 9.82163 46.1282 10.4216 47.3715C11.5682 49.7515 13.7582 51.5381 16.3381 52.2047C17.2314 52.4347 18.218 52.5614 19.4847 52.6214C20.0213 52.6447 25.4912 52.6614 30.9643 52.6614C36.4375 52.6614 41.9107 52.6547 42.434 52.628C43.9006 52.559 44.7522 52.4447 45.6939 52.2014C48.2905 51.5314 50.4404 49.7715 51.6104 47.3582C52.1987 46.1449 52.497 44.9649 52.632 43.2526C52.6613 42.8793 52.6737 36.9272 52.6737 30.983C52.6737 25.0379 52.6603 19.0967 52.631 18.7234C52.4943 16.9834 52.196 15.8135 51.5887 14.5768C51.0904 13.5645 50.5371 12.8086 49.7338 12.0356C48.3001 10.6663 46.5469 9.83299 44.4576 9.53167C43.4453 9.38534 43.2436 9.34201 38.0638 9.33301H31.0107Z" fill="url(#paint1_radial_496_1131)"/>
<path d="M31.0007 15C26.6555 15 26.1102 15.019 24.4036 15.0967C22.7003 15.1747 21.5377 15.4443 20.5204 15.84C19.4681 16.2486 18.5754 16.7953 17.6861 17.6849C16.7962 18.5742 16.2495 19.4669 15.8395 20.5188C15.4429 21.5365 15.1729 22.6994 15.0962 24.402C15.0199 26.1087 14.9999 26.6543 14.9999 30.9995C14.9999 35.3447 15.0192 35.8884 15.0965 37.595C15.1749 39.2983 15.4445 40.4609 15.8399 41.4782C16.2488 42.5305 16.7955 43.4231 17.6851 44.3124C18.5741 45.2024 19.4667 45.7504 20.5184 46.1591C21.5363 46.5547 22.6993 46.8244 24.4023 46.9024C26.1089 46.98 26.6539 46.999 30.9987 46.999C35.3443 46.999 35.8879 46.98 37.5945 46.9024C39.2978 46.8244 40.4618 46.5547 41.4797 46.1591C42.5317 45.7504 43.423 45.2024 44.312 44.3124C45.202 43.4231 45.7486 42.5305 46.1586 41.4785C46.5519 40.4609 46.8219 39.2979 46.9019 37.5953C46.9786 35.8887 46.9986 35.3447 46.9986 30.9995C46.9986 26.6543 46.9786 26.109 46.9019 24.4024C46.8219 22.6991 46.5519 21.5365 46.1586 20.5192C45.7486 19.4669 45.202 18.5742 44.312 17.6849C43.422 16.7949 42.532 16.2483 41.4787 15.84C40.4588 15.4443 39.2955 15.1747 37.5922 15.0967C35.8856 15.019 35.3423 15 30.9957 15H31.0007ZM29.5654 17.8832C29.9914 17.8826 30.4667 17.8832 31.0007 17.8832C35.2726 17.8832 35.7789 17.8986 37.4659 17.9752C39.0258 18.0466 39.8725 18.3072 40.4364 18.5262C41.1831 18.8162 41.7154 19.1629 42.2751 19.7229C42.835 20.2828 43.1817 20.8162 43.4723 21.5628C43.6913 22.1261 43.9523 22.9728 44.0233 24.5327C44.1 26.2193 44.1167 26.726 44.1167 30.9958C44.1167 35.2657 44.1 35.7724 44.0233 37.459C43.952 39.0189 43.6913 39.8656 43.4723 40.4289C43.1824 41.1755 42.835 41.7072 42.2751 42.2668C41.7151 42.8268 41.1834 43.1735 40.4364 43.4635C39.8731 43.6835 39.0258 43.9435 37.4659 44.0148C35.7792 44.0915 35.2726 44.1081 31.0007 44.1081C26.7285 44.1081 26.2222 44.0915 24.5356 44.0148C22.9756 43.9428 22.129 43.6821 21.5647 43.4631C20.818 43.1731 20.2847 42.8265 19.7247 42.2665C19.1648 41.7065 18.8181 41.1745 18.5274 40.4276C18.3084 39.8642 18.0475 39.0176 17.9765 37.4577C17.8998 35.771 17.8845 35.2644 17.8845 30.9918C17.8845 26.7193 17.8998 26.2153 17.9765 24.5287C18.0478 22.9688 18.3084 22.1221 18.5274 21.5581C18.8174 20.8115 19.1648 20.2782 19.7247 19.7182C20.2847 19.1582 20.818 18.8116 21.5647 18.5209C22.1287 18.3009 22.9756 18.0409 24.5356 17.9692C26.0115 17.9026 26.5835 17.8826 29.5654 17.8792V17.8832ZM39.5411 20.5398C38.4812 20.5398 37.6212 21.3988 37.6212 22.4591C37.6212 23.5191 38.4812 24.379 39.5411 24.379C40.6011 24.379 41.4611 23.5191 41.4611 22.4591C41.4611 21.3991 40.6011 20.5392 39.5411 20.5392V20.5398ZM31.0007 22.7831C26.4632 22.7831 22.7843 26.462 22.7843 30.9995C22.7843 35.537 26.4632 39.2143 31.0007 39.2143C35.5383 39.2143 39.2158 35.537 39.2158 30.9995C39.2158 26.462 35.5383 22.7831 31.0007 22.7831ZM31.0007 25.6663C33.946 25.6663 36.3339 28.0539 36.3339 30.9995C36.3339 33.9448 33.946 36.3327 31.0007 36.3327C28.0551 36.3327 25.6676 33.9448 25.6676 30.9995C25.6676 28.0539 28.0551 25.6663 31.0007 25.6663Z" fill="white"/>
</g>
<defs>
<radialGradient id="paint0_radial_496_1131" cx="0" cy="0" r="1" gradientUnits="userSpaceOnUse" gradientTransform="translate(20.8458 55.9986) rotate(-90) scale(42.9416 39.95)">
<stop stop-color="#FFDD55"/>
<stop offset="0.1" stop-color="#FFDD55"/>
<stop offset="0.5" stop-color="#FF543E"/>
<stop offset="1" stop-color="#C837AB"/>
</radialGradient>
<radialGradient id="paint1_radial_496_1131" cx="0" cy="0" r="1" gradientUnits="userSpaceOnUse" gradientTransform="translate(2.07379 12.4543) rotate(78.6776) scale(19.1953 79.1436)">
<stop stop-color="#3771C8"/>
<stop offset="0.128" stop-color="#3771C8"/>
<stop offset="1" stop-color="#6600FF" stop-opacity="0"/>
</radialGradient>
<clipPath id="clip0_496_1131">
<rect width="44" height="43.9987" fill="white" transform="translate(9 9)"/>
</clipPath>
</defs>
</svg>

<svg xmlns="http://www.w3.org/2000/svg" xmlns:xlink="http://www.w3.org/1999/xlink" width="62" height="62" fill="none"><g clip-path="url(#C)"><use xlink:href="#D" fill="url(#A)"/><use xlink:href="#D" fill="url(#B)"/><path d="M31.001 15l-6.597.097c-1.703.078-2.866.348-3.883.743-1.052.409-1.945.955-2.834 1.845s-1.437 1.782-1.847 2.834c-.397 1.018-.667 2.181-.743 3.883L15 31l.097 6.595c.078 1.703.348 2.866.743 3.883.409 1.052.956 1.945 1.845 2.834s1.782 1.438 2.833 1.847c1.018.396 2.181.665 3.884.743l6.596.097 6.596-.097c1.703-.078 2.867-.348 3.885-.743 1.052-.409 1.943-.957 2.832-1.847a7.85 7.85 0 0 0 1.847-2.834c.393-1.018.663-2.181.743-3.883L46.999 31l-.097-6.597c-.08-1.703-.35-2.866-.743-3.883a7.85 7.85 0 0 0-1.847-2.834c-.89-.89-1.78-1.437-2.833-1.845-1.02-.396-2.183-.665-3.887-.743L30.996 15h.005zm-1.435 2.883h1.435l6.465.092c1.56.071 2.407.332 2.971.551.747.29 1.279.637 1.839 1.197s.907 1.093 1.197 1.84c.219.563.48 1.41.551 2.97l.093 6.463-.093 6.463c-.071 1.56-.332 2.407-.551 2.97-.29.747-.637 1.278-1.197 1.838s-1.092.907-1.839 1.197c-.563.22-1.411.48-2.971.551l-6.465.093c-4.272 0-4.778-.017-6.465-.093-1.56-.072-2.407-.333-2.971-.552-.747-.29-1.28-.637-1.84-1.197a4.96 4.96 0 0 1-1.197-1.839c-.219-.563-.48-1.41-.551-2.97l-.092-6.466.092-6.463c.071-1.56.332-2.407.551-2.971.29-.747.637-1.28 1.197-1.84s1.093-.907 1.84-1.197c.564-.22 1.411-.48 2.971-.552l5.03-.09v.004zm9.976 2.657a1.92 1.92 0 0 0-1.92 1.919 1.92 1.92 0 0 0 3.84 0 1.92 1.92 0 0 0-1.92-1.92v.001zm-8.54 2.243A8.22 8.22 0 0 0 22.784 31c0 4.537 3.679 8.215 8.216 8.215s8.215-3.677 8.215-8.215a8.22 8.22 0 0 0-8.215-8.216zm0 2.883c2.945 0 5.333 2.388 5.333 5.333s-2.388 5.333-5.333 5.333-5.333-2.388-5.333-5.333 2.387-5.333 5.333-5.333z" fill="#fff"/></g><defs><radialGradient id="A" cx="0" cy="0" r="1" gradientUnits="userSpaceOnUse" gradientTransform="translate(20.8458 55.999) rotate(-90) scale(42.9416 39.95)"><stop stop-color="#fd5"/><stop offset=".1" stop-color="#fd5"/><stop offset=".5" stop-color="#ff543e"/><stop offset="1" stop-color="#c837ab"/></radialGradient><radialGradient id="B" cx="0" cy="0" r="1" gradientUnits="userSpaceOnUse" gradientTransform="matrix(3.7686037327099853,18.821720643867934,-77.60330549405461,15.538223751653062,2.07379,12.4548)"><stop stop-color="#3771c8"/><stop offset=".128" stop-color="#3771c8"/><stop offset="1" stop-color="#60f" stop-opacity="0"/></radialGradient><clipPath id="C"><path fill="#fff" transform="translate(9 9)" d="M0 0h44v43.999H0z"/></clipPath><path id="D" d="M31.011 9.334l-12.207.052c-1.857.154-3.012.447-4.271 1.073a8.65 8.65 0 0 0-2.49 1.823c-1.375 1.427-2.208 3.183-2.51 5.271-.147 1.013-.189 1.22-.198 6.396v7.041l.053 12.196c.15 1.807.433 2.943 1.033 4.187a9.13 9.13 0 0 0 5.917 4.833c.893.23 1.88.357 3.147.417.537.023 6.006.04 11.48.04l11.47-.033c1.467-.069 2.318-.183 3.26-.427 2.597-.67 4.746-2.43 5.916-4.843.588-1.213.887-2.393 1.022-4.106.029-.373.042-6.325.042-12.27l-.043-12.26c-.137-1.74-.435-2.91-1.042-4.147-.498-1.012-1.052-1.768-1.855-2.541-1.434-1.369-3.187-2.203-5.276-2.504-1.012-.146-1.214-.19-6.394-.199h-7.053z"/></defs></svg>
